X:1
T:Mazurka
T:Mazurka
T:Francisco Tárrega (1852 - 1909)
T:En sol mayor
C:Francisco Tárrega
%%score ( 1 2 3 4 )
L:1/8
Q:1/4=80
M:3/4
K:G
V:1 treble-8 nm="Classical Guitar" snm="Guit."
V:2 treble-8 
V:3 treble-8 
V:4 treble-8 
V:1
"^Andante" [Dc]>[^Dc] [Ec]2 [Fd]2 | [Ec][DB]{/Bc} [DB]>[^C^A] [DB]2 | z g c'[eg] [df][ce] | %3
"^III" [ce][Bd]{/de} [Bd][^Ad] [Bd]2 |!-(!{/^g} !-)!be ee{/e=f=g} fe | c'>b"^V" a2 z g | %6
"^II" f2 e2 d2 | [^Ae]2 [Bd]2"^V" d'2- | d'4 [cf]2 | [ca][Bg]{/ga} [Bdg][^Af] [Bdg]2 | %10
"^VIII" z g [ege'][eg] [df][ce] |"^III" [ce][Bd]{/de} [Bd][^Ad] [Bd]2 | %12
{/d'=f'} d'e!-(!{/[d=f]} !-)![f^g]d' [ec'][db] | [db][ca]{/ab} [ca][B^g] [ca]2 | %14
 z!-(!{/g} !-)!b [Bg][Bd] [^A^ce][=A=cf] | [Bg]4 z2!fine! :| z2 [ef]2"^VII" [^df]2 | %17
 z2 [eg]2 [eg]2 | z2 [fa]2 z2 | z e ^ce d2 |"^II" g3 f ^ef | e^d ^^c!-(!d!-)!{^d'} d'b | g3 f ef | %23
 [Ge][Fd]{/de} [Fd][^E^c] [Fd]2 | z2 [ef]2"^VII" [^df]2 | z2 [eg]2 [eg]2 | z2 [fa]2 z2 | %27
 z e ^ce d2 |"^II" g3 f ^ef | e^d ^^c!-(!d!-)!{^d'} d'b | g3 f ef | [Ge]>[F=cd] [Fcd]2 z2!D.C.! |] %32
V:2
 A,4 =D2 | G,6 | z e2 z3 | z2 G4 | z2 [^Gd]e z2 | z2 [ce]2 e2 | D2 DE FE | z ^C D2 z2 | x6 | G,6 | %10
 z2 c2 z2 | z2 G4 | E,6 | A,4 C2 | D4 D2 | G2 G,2 z2 :| c3 B A{/c}B | E,6 | d3!-(!{/A} !-)!c B^A | %19
 [G^A]4 B2 | z2 [^A^c]2 A2 | [B,F]4 z2 | z2 [Bd]2 [G^c]2 | x6 | c3 B A{/c}B | E,6 | %26
 d3!-(!{/A} !-)!c B^A | [G^A]4 B2 | z2 [^A^c]2 A2 | [B,F]4 z2 | z2 [Bd]2 [G^c]2 | x6 |] %32
V:3
 x6 | x6 |!-(!{/G,} !-)!C3 z3 | G,6 | E,6 | A,4 C2 | x6 | G,4 z2 | x4 =D2 | x6 | %10
!-(!{/G,} !-)!C3 z z2 | G,6 | x6 | x6 | x6 | x6 :| A,4 B,2 | x6 | D6 | x6 | F,6 | x6 | E,4 A,2 | %23
 D4 z2 | A,4 B,2 | x6 | D6 | x6 | F,6 | x6 | E,4 A,2 | D4 D2 |] %32
V:4
 x6 | x6 | x6 | x6 | x6 | x6 | (A/^A/B/c/-) c2 c2 | x6 |!-(!{/[Ac]} !-)![cd]>[c^d] [ce]2 x2 | x6 | %10
 x6 | x6 | x6 | x6 | x6 | x6 :| x6 | EF GA Be | x6 | x6 | x6 | x6 | x6 | x6 | x6 | EF GA Be | x6 | %27
 x6 | x6 | x6 | x6 | x6 |] %32

